src/pos-icons/signature-freehand.svg

<svg height="24" viewBox="0 0 24 24" width="24" xmlns="http://www.w3.org/2000/svg"><path d="m22 22h-20v-2h20zm-15.8-4.7-.7.7-1.4-1.4-1.4 1.4-.7-.7 1.4-1.4-1.4-1.4.7-.7 1.4 1.4 1.4-1.4.7.7-1.4 1.4zm10.02-2.87c0-.58-.72-1.23-2.16-1.97-1.83-.92-3.06-1.67-3.7-2.22-.65-.56-.97-1.18-.97-1.87 0-1.78.91-3.25 2.73-4.42s3.31-1.76 4.45-1.76c.74 0 1.28.13 1.61.39.32.25.5.69.5 1.32 0 .28-.12.52-.37.73-.24.2-.44.3-.57.3-.11 0-.31-.1-.61-.29l-.58-.26c-.47 0-1.41.33-2.84 1-1.42.66-2.13 1.41-2.13 2.25 0 .51.24.97.74 1.37.5.42 1.39.93 2.68 1.53 1.03.47 1.86.97 2.5 1.54.6.54.91 1.18.91 1.93 0 1.34-.94 2.41-2.83 3.17-1.88.77-3.68 1.15-5.39 1.15-1.44 0-2.19-.49-2.19-1.46 0-.36.19-.59.5-.75.33-.16.66-.24 1-.24l.75.13.72.13c.98 0 2.03-.16 3.16-.49 1.13-.32 1.83-.73 2.09-1.21z"/></svg>

<?xml version="1.0" encoding="UTF-8"?><!DOCTYPE svg PUBLIC "-//W3C//DTD SVG 1.1//EN" "http://www.w3.org/Graphics/SVG/1.1/DTD/svg11.dtd"><svg xmlns="http://www.w3.org/2000/svg" xmlns:xlink="http://www.w3.org/1999/xlink" version="1.1" id="mdi-signature-freehand" width="24" height="24" viewBox="0 0 24 24"><path d="M22,22H2V20H22V22M6.2,17.3L5.5,18L4.1,16.6L2.7,18L2,17.3L3.4,15.9L2,14.5L2.7,13.8L4.1,15.2L5.5,13.8L6.2,14.5L4.8,15.9L6.2,17.3M16.22,14.43C16.22,13.85 15.5,13.2 14.06,12.46C12.23,11.54 11,10.79 10.36,10.24C9.71,9.68 9.39,9.06 9.39,8.37C9.39,6.59 10.3,5.12 12.12,3.95C13.94,2.78 15.43,2.19 16.57,2.19C17.31,2.19 17.85,2.32 18.18,2.58C18.5,2.83 18.68,3.27 18.68,3.9C18.68,4.18 18.56,4.42 18.31,4.63C18.07,4.83 17.87,4.93 17.74,4.93C17.63,4.93 17.43,4.83 17.13,4.64L16.55,4.38C16.08,4.38 15.14,4.71 13.71,5.38C12.29,6.04 11.58,6.79 11.58,7.63C11.58,8.14 11.82,8.6 12.32,9C12.82,9.42 13.71,9.93 15,10.53C16.03,11 16.86,11.5 17.5,12.07C18.1,12.61 18.41,13.25 18.41,14C18.41,15.34 17.47,16.41 15.58,17.17C13.7,17.94 11.9,18.32 10.19,18.32C8.75,18.32 8,17.83 8,16.86C8,16.5 8.19,16.27 8.5,16.11C8.83,15.95 9.16,15.87 9.5,15.87L10.25,16L10.97,16.13C11.95,16.13 13,15.97 14.13,15.64C15.26,15.32 15.96,14.91 16.22,14.43Z" /></svg>
